X:1
T:Mist on the Marsh
C:Traditional
M:3/4
L:1/4
Q:1/4=138
K:D
A | F F/2A/2G/2F/2 | E E2 | D D/2F/2E/2D/2 | C3 | B B/2d/2c/2B/2 | A d2 | D D/2F/2E/2D/2 | E2 =F |
F F/2A/2G/2F/2 | E E2 | D D/2F/2E/2D/2 | C3 | B B/2d/2c/2B/2 | A/2D/2F/2a/2g/2F/2 | F2 E | D2 D |]
